swiss/communes/5728.svg

<svg xmlns="http://www.w3.org/2000/svg" xmlns:xlink="http://www.w3.org/1999/xlink" height="763" width="603" version="1.0"><defs><radialGradient xlink:href="#a" id="b" gradientUnits="userSpaceOnUse" gradientTransform="matrix(1.21503 0 0 1.26667 -839.192 -490.49)" cx="858.042" cy="579.933" fx="858.042" fy="579.933" r="300"/><linearGradient id="a"><stop style="stop-color:#fff;stop-opacity:.3137255" offset="0"/><stop offset=".19" style="stop-color:#fff;stop-opacity:.25098041"/><stop style="stop-color:#6b6b6b;stop-opacity:.1254902" offset=".6"/><stop style="stop-color:#000;stop-opacity:.1254902" offset="1"/></linearGradient></defs><g style="opacity:1"><path d="M1.5 1.5v458.869C1.5 626.68 135.814 761.5 301.5 761.5s300-134.82 300-301.131V1.5H1.5z" style="opacity:1;fill:#2b5df2"/><path d="M558.689 615.458c27.172-45.299 42.811-98.359 42.811-155.09V1.5H1.5l557.189 613.958z" style="opacity:1;fill:#e20909"/></g><g style="opacity:1;display:inline"><path style="fill:none;stroke:#000;stroke-width:3" d="M558.689 615.458 1.5 1.5"/><path d="M533.545 341.588h-9.643v-11.609c0-13.518-10.958-24.478-24.478-24.478-13.52 0-24.478 10.96-24.478 24.478v17.204H320.383V192.62h17.203c13.518 0 24.478-10.958 24.478-24.478 0-13.52-10.96-24.478-24.478-24.478h-11.61v-9.642c0-13.519-10.958-24.478-24.478-24.478-13.519 0-24.478 10.959-24.478 24.478v9.642h-11.608c-13.519 0-24.478 10.958-24.478 24.478 0 13.52 10.959 24.478 24.478 24.478h17.204v154.563H128.052v-17.204c0-13.518-10.958-24.478-24.478-24.478-13.52 0-24.478 10.96-24.478 24.478v11.609h-9.642c-13.52 0-24.478 10.96-24.478 24.478 0 13.52 10.958 24.478 24.478 24.478h9.642v11.609c0 13.519 10.958 24.479 24.478 24.479 13.52 0 24.478-10.96 24.478-24.479V384.95h154.563v154.563h-17.203c-13.519 0-24.478 10.958-24.478 24.479 0 13.52 10.959 24.478 24.478 24.478h11.609v9.643c0 13.519 10.958 24.477 24.478 24.477 13.52 0 24.478-10.958 24.478-24.477v-9.643h11.61c13.518 0 24.478-10.958 24.478-24.478 0-13.521-10.96-24.479-24.478-24.479h-17.203V384.95h154.563v17.203c0 13.519 10.958 24.479 24.477 24.479 13.521 0 24.479-10.96 24.479-24.479v-11.609h9.642c13.519 0 24.477-10.958 24.477-24.478 0-13.518-10.959-24.478-24.477-24.478z" style="fill:#fff;stroke:#000;stroke-width:3"/></g><g style="display:inline"><path style="fill:url(#b);fill-opacity:1" d="M1.5 1.5v458.868c0 166.31 134.315 301.132 300 301.132s300-134.821 300-301.132V1.5H1.5z"/></g><g style="display:inline"><path style="fill:none;fill-opacity:1;stroke:#000;stroke-width:3;stroke-miterlimit:4;stroke-dasharray:none;stroke-opacity:1" d="M1.5 1.5v458.868c0 166.31 134.315 301.132 300 301.132s300-134.821 300-301.132V1.5H1.5z"/></g></svg>

<?xml version="1.0" encoding="UTF-8" standalone="no"?>
<svg
   xmlns:dc="http://purl.org/dc/elements/1.1/"
   xmlns:cc="http://creativecommons.org/ns#"
   xmlns:rdf="http://www.w3.org/1999/02/22-rdf-syntax-ns#"
   xmlns:svg="http://www.w3.org/2000/svg"
   xmlns="http://www.w3.org/2000/svg"
   xmlns:xlink="http://www.w3.org/1999/xlink"
   xmlns:sodipodi="http://sodipodi.sourceforge.net/DTD/sodipodi-0.dtd"
   xmlns:inkscape="http://www.inkscape.org/namespaces/inkscape"
   height="763"
   width="603"
   version="1.0"
   id="svg20"
   sodipodi:version="0.32"
   inkscape:version="0.46"
   sodipodi:docname="Signy-Avenex-coat_of_arms.svg"
   sodipodi:docbase="C:\Documents and Settings\Steve\Bureau\Blason Villages Suisse pour Wikipédia (par Delta-9)"
   inkscape:output_extension="org.inkscape.output.svg.inkscape">
  <metadata
     id="metadata31">
    <rdf:RDF>
      <cc:Work
         rdf:about="">
        <dc:format>image/svg+xml</dc:format>
        <dc:type
           rdf:resource="http://purl.org/dc/dcmitype/StillImage" />
        <dc:date>07-AUG-2006</dc:date>
        <dc:creator>
          <cc:Agent>
            <dc:title>Jérôme BLUM (wagner51)</dc:title>
          </cc:Agent>
        </dc:creator>
        <cc:license
           rdf:resource="http://creativecommons.org/licenses/GPL/2.0/" />
        <dc:coverage />
        <dc:description>Gabarit pour le Projet:Blasons de WIkipédia</dc:description>
        <dc:subject>
          <rdf:Bag>
            <rdf:li>blason suisse modèle gabarit projet blasons</rdf:li>
          </rdf:Bag>
        </dc:subject>
        <dc:language>fr</dc:language>
        <dc:title>Gabrit d'un blason suisse</dc:title>
      </cc:Work>
      <cc:License
         rdf:about="http://creativecommons.org/licenses/GPL/2.0/">
        <cc:permits
           rdf:resource="http://web.resource.org/cc/Reproduction" />
        <cc:permits
           rdf:resource="http://web.resource.org/cc/Distribution" />
        <cc:requires
           rdf:resource="http://web.resource.org/cc/Notice" />
        <cc:permits
           rdf:resource="http://web.resource.org/cc/DerivativeWorks" />
        <cc:requires
           rdf:resource="http://web.resource.org/cc/ShareAlike" />
        <cc:requires
           rdf:resource="http://web.resource.org/cc/SourceCode" />
      </cc:License>
    </rdf:RDF>
  </metadata>
  <defs
     id="defs29"><inkscape:perspective
   sodipodi:type="inkscape:persp3d"
   inkscape:vp_x="0 : 381.5 : 1"
   inkscape:vp_y="0 : 1000 : 0"
   inkscape:vp_z="603 : 381.5 : 1"
   inkscape:persp3d-origin="301.5 : 254.33333 : 1"
   id="perspective28" />
<linearGradient
   id="linearGradient2893">
  <stop
     style="stop-color:#ffffff;stop-opacity:0.3137255;"
     offset="0"
     id="stop2895" />
  <stop
     id="stop2897"
     offset="0.19"
     style="stop-color:#ffffff;stop-opacity:0.25098041;" />
  <stop
     style="stop-color:#6b6b6b;stop-opacity:0.1254902;"
     offset="0.60000002"
     id="stop2901" />
  <stop
     style="stop-color:#000000;stop-opacity:0.1254902;"
     offset="1"
     id="stop2899" />
</linearGradient>
<linearGradient
   id="linearGradient2955">
  <stop
     style="stop-color:white;stop-opacity:0;"
     offset="0"
     id="stop2965" />
  <stop
     style="stop-color:black;stop-opacity:0.64583331;"
     offset="1"
     id="stop2959" />
</linearGradient>
<radialGradient
   inkscape:collect="always"
   xlink:href="#linearGradient2893"
   id="radialGradient3236"
   gradientUnits="userSpaceOnUse"
   gradientTransform="matrix(1.215027,1.531577e-24,1.464684e-23,1.266667,-839.1924,-490.4894)"
   cx="858.04236"
   cy="579.93323"
   fx="858.04236"
   fy="579.93323"
   r="300" />
<inkscape:perspective
   id="perspective2560"
   inkscape:persp3d-origin="297.63751 : 280.63 : 1"
   inkscape:vp_z="595.27502 : 420.94501 : 1"
   inkscape:vp_y="0 : 1000 : 0"
   inkscape:vp_x="0 : 420.94501 : 1"
   sodipodi:type="inkscape:persp3d" />

	

	
	
</defs>
  <sodipodi:namedview
     inkscape:window-height="916"
     inkscape:window-width="1253"
     inkscape:pageshadow="2"
     inkscape:pageopacity="0.0"
     guidetolerance="10.0"
     gridtolerance="10.0"
     objecttolerance="10.0"
     borderopacity="1.0"
     bordercolor="#666666"
     pagecolor="#ffffff"
     id="base"
     inkscape:zoom="0.71372084"
     inkscape:cx="254.23543"
     inkscape:cy="383.94739"
     inkscape:window-x="13"
     inkscape:window-y="37"
     inkscape:current-layer="layer1"
     showgrid="false"
     showguides="true"
     inkscape:guide-bbox="true">
    <sodipodi:guide
       orientation="horizontal"
       position="761.5"
       id="guide1885" />
    <sodipodi:guide
       orientation="vertical"
       position="1.5"
       id="guide1887" />
    <sodipodi:guide
       orientation="horizontal"
       position="1.5"
       id="guide1889" />
    <sodipodi:guide
       orientation="vertical"
       position="601.5"
       id="guide1891" />
    <sodipodi:guide
       orientation="vertical"
       position="301.50081"
       id="guide1893" />
  </sodipodi:namedview>
  <desc
     id="desc22">Coat of Arms of Canton of Freiburg (Fribourg)</desc>
  <g
     inkscape:groupmode="layer"
     id="layer1"
     inkscape:label="Fond écu"
     style="opacity:1"
     sodipodi:insensitive="true">
    <path
       d="M 1.5,1.5 L 1.5,460.369 C 1.5,626.68 135.814,761.5 301.5,761.5 C 467.186,761.5 601.5,626.68 601.5,460.369 L 601.5,1.5 L 1.5,1.5 z"
       id="path2567"
       style="opacity:1;fill:#2b5df2" />
    <path
       d="M 558.689,615.458 L 558.689,615.458 C 585.861,570.159 601.5,517.099 601.5,460.368 L 601.5,1.5 L 1.5,1.5 L 558.689,615.458 z"
       id="path2471"
       style="opacity:1;fill:#e20909" />
  </g>
  <g
     inkscape:groupmode="layer"
     id="layer2"
     inkscape:label="Meubles"
     style="opacity:1;display:inline"
     sodipodi:insensitive="true">
    <path
       style="fill:none;stroke:#000000;stroke-width:3"
       id="path1957_3_"
       d="M 558.689,615.458 L 1.5,1.5" />
    <path
       d="M 533.545,341.588 L 523.902,341.588 L 523.902,329.979 C 523.902,316.461 512.944,305.501 499.424,305.501 C 485.904,305.501 474.946,316.461 474.946,329.979 L 474.946,347.183 L 320.383,347.183 L 320.383,192.62 L 337.586,192.62 C 351.104,192.62 362.064,181.662 362.064,168.142 C 362.064,154.622 351.104,143.664 337.586,143.664 L 325.976,143.664 L 325.976,134.022 C 325.976,120.503 315.018,109.544 301.498,109.544 C 287.979,109.544 277.02,120.503 277.02,134.022 L 277.02,143.664 L 265.412,143.664 C 251.893,143.664 240.934,154.622 240.934,168.142 C 240.934,181.662 251.893,192.62 265.412,192.62 L 282.616,192.62 L 282.616,347.183 L 128.052,347.183 L 128.052,329.979 C 128.052,316.461 117.094,305.501 103.574,305.501 C 90.054,305.501 79.096,316.461 79.096,329.979 L 79.096,341.588 L 69.454,341.588 C 55.934,341.588 44.976,352.548 44.976,366.066 C 44.976,379.586 55.934,390.544 69.454,390.544 L 79.096,390.544 L 79.096,402.153 C 79.096,415.672 90.054,426.632 103.574,426.632 C 117.094,426.632 128.052,415.672 128.052,402.153 L 128.052,384.95 L 282.615,384.95 L 282.615,539.513 L 265.412,539.513 C 251.893,539.513 240.934,550.471 240.934,563.992 C 240.934,577.512 251.893,588.47 265.412,588.47 L 277.021,588.47 L 277.021,598.113 C 277.021,611.632 287.979,622.59 301.499,622.59 C 315.019,622.59 325.977,611.632 325.977,598.113 L 325.977,588.47 L 337.587,588.47 C 351.105,588.47 362.065,577.512 362.065,563.992 C 362.065,550.471 351.105,539.513 337.587,539.513 L 320.384,539.513 L 320.384,384.95 L 474.947,384.95 L 474.947,402.153 C 474.947,415.672 485.905,426.632 499.424,426.632 C 512.945,426.632 523.903,415.672 523.903,402.153 L 523.903,390.544 L 533.545,390.544 C 547.064,390.544 558.022,379.586 558.022,366.066 C 558.022,352.548 547.063,341.588 533.545,341.588 z"
       id="path2496"
       style="fill:#ffffff;stroke:#000000;stroke-width:3" />
  </g>
  <g
     inkscape:groupmode="layer"
     id="layer3"
     inkscape:label="Reflet final"
     style="display:inline"
     sodipodi:insensitive="true">
    <path
       style="fill:url(#radialGradient3236);fill-opacity:1"
       d="M 1.5,1.5 L 1.5,460.3679 C 1.5,626.67854 135.81454,761.5 301.49993,761.5 C 467.1854,761.5 601.5,626.67854 601.5,460.3679 L 601.5,1.5 L 1.5,1.5 z"
       id="path2346" />
  </g>
  <g
     inkscape:groupmode="layer"
     id="layer4"
     inkscape:label="Contour final"
     style="display:inline"
     sodipodi:insensitive="true">
    <path
       style="fill:none;fill-opacity:1;stroke:#000000;stroke-width:3;stroke-miterlimit:4;stroke-dasharray:none;stroke-opacity:1"
       d="M 1.5,1.5 L 1.5,460.36794 C 1.5,626.67854 135.81454,761.5 301.49993,761.5 C 467.1854,761.5 601.5,626.67854 601.5,460.36794 L 601.5,1.5 L 1.5,1.5 z"
       id="path3239" />
  </g>
</svg>
